Adwaita++-Light/panel/16/dropboxstatus-idle.svg

<svg height="16" width="16" xmlns="http://www.w3.org/2000/svg">
  <path d="m4.4472656 1 .0019532.0039062-4.4414063 2.5039063 3.9921875 2.4785156-4 3.0175781 4.4492188 2.4960938 3.5507812-2.4902344-4-3.0097656 4-2.4921875 4 2.5058594-1.736328 1.3007812a5 5 0 0 1 1.736328-.3144531 5 5 0 0 1 1.792969.3378906l-1.792969-1.3417968 3.990234-2.4902344-4.439453-2.5058594-3.550781 2.4921875zm7.5527344 7a4 4 0 0 0 -4 4 4 4 0 0 0 4 4 4 4 0 0 0 4-4 4 4 0 0 0 -4-4zm3.970703.9667969a5 5 0 0 1 .019531.0292969l.009766-.0058594zm-1.771484.2949219a3.5 3.5 0 0 1 .433593.421875 3.5 3.5 0 0 1 .001954.0019531 3.5 3.5 0 0 1 .71289 1.2949221 3.5 3.5 0 0 1 .105469.4375 3.5 3.5 0 0 1 .041016.460937c-.005-.153-.017969-.305984-.042969-.458984-.024-.15-.06047-.2965-.105469-.4375-.045-.142-.0972-.280016-.158203-.416016l-3.179688 3.634766-.345703.40625-.390625-.375-1.5019528-1.501953c-.189-.188-.189-.531703 0-.720703.1880001-.188.5307498-.188.7187498 0l1.126953 1.126953 3.017578-3.4531252c-.134686-.1546421-.279003-.2951091-.433593-.421875zm-6.9863284 1.3007812-2.7636718 1.939453-.8886719-.498047v.371094l4.4394531 2.625.0058594-.001953a5 5 0 0 1 -1.0058594-2.998047 5 5 0 0 1 .2128906-1.4375z" fill="#444"/>
</svg>

<svg xmlns="http://www.w3.org/2000/svg" width="16" height="16" version="1.1">
 <defs>
  <style id="current-color-scheme" type="text/css">
   .ColorScheme-Text { color:#444444; } .ColorScheme-Highlight { color:#4285f4; }
  </style>
 </defs>
 <path style="fill:currentColor" class="ColorScheme-Text" d="M 4.4472656 1 L 4.4492188 1.0039062 L 0.0078125 3.5078125 L 4 5.9863281 L 0 9.0039062 L 4.4492188 11.5 L 8 9.0097656 L 4 6 L 8 3.5078125 L 12 6.0136719 L 10.263672 7.3144531 A 5 5 0 0 1 12 7 A 5 5 0 0 1 13.792969 7.3378906 L 12 5.9960938 L 15.990234 3.5058594 L 11.550781 1 L 8 3.4921875 L 4.4472656 1 z M 12 8 A 4 4 0 0 0 8 12 A 4 4 0 0 0 12 16 A 4 4 0 0 0 16 12 A 4 4 0 0 0 12 8 z M 15.970703 8.9667969 A 5 5 0 0 1 15.990234 8.9960938 L 16 8.9902344 L 15.970703 8.9667969 z M 14.199219 9.2617188 A 3.5 3.5 0 0 1 14.632812 9.6835938 A 3.5 3.5 0 0 1 14.634766 9.6855469 A 3.5 3.5 0 0 1 15.347656 10.980469 A 3.5 3.5 0 0 1 15.453125 11.417969 A 3.5 3.5 0 0 1 15.494141 11.878906 C 15.489141 11.725906 15.476172 11.572922 15.451172 11.419922 C 15.427172 11.269922 15.390702 11.123422 15.345703 10.982422 C 15.300703 10.840422 15.248503 10.702406 15.1875 10.566406 L 12.007812 14.201172 L 11.662109 14.607422 L 11.271484 14.232422 L 9.7695312 12.730469 C 9.5805312 12.542469 9.5805312 12.198766 9.7695312 12.009766 C 9.9575313 11.821766 10.300281 11.821766 10.488281 12.009766 L 11.615234 13.136719 L 14.632812 9.6835938 C 14.498126 9.5289517 14.353809 9.3884847 14.199219 9.2617188 z M 7.2128906 10.5625 L 4.4492188 12.501953 L 3.5605469 12.003906 L 3.5605469 12.375 L 8 15 L 8.0058594 14.998047 A 5 5 0 0 1 7 12 A 5 5 0 0 1 7.2128906 10.5625 z"/>
</svg>
